public/images/hashed/42d5b9f543d860990518bb60dfe8cb51.svg

<?xml version="1.0" encoding="UTF-8"?>
<svg width="80px" height="80px" viewBox="0 0 80 80" version="1.1" xmlns="http://www.w3.org/2000/svg" xmlns:xlink="http://www.w3.org/1999/xlink">
    <!-- Generator: Sketch 64 (93537) - https://sketch.com -->
    <title>Icon-Architecture/64/Arch_Amazon-Elastic-Inference_64</title>
    <desc>Created with Sketch.</desc>
    <defs>
        <linearGradient x1="0%" y1="100%" x2="100%" y2="0%" id="linearGradient-1">
            <stop stop-color="#055F4E" offset="0%"></stop>
            <stop stop-color="#56C0A7" offset="100%"></stop>
        </linearGradient>
    </defs>
    <g id="Icon-Architecture/64/Arch_Amazon-Elastic-Inference_64" stroke="none" stroke-width="1" fill="none" fill-rule="evenodd">
        <g id="Icon-Architecture-BG/64/Machine-Learning" fill="url(#linearGradient-1)">
            <rect id="Rectangle" x="0" y="0" width="80" height="80"></rect>
        </g>
        <path d="M38.0058946,48.3733707 L25.9102227,55.4710918 L24.8949145,53.7527277 L31.711984,49.7528463 L31.711984,45.3333413 L25.9732419,42.1268578 L19.8693889,45.1369853 L18.9821196,43.3498466 L25.001947,40.3815818 L25.001947,34.6025357 L19.0451387,31.2096636 L14.0006073,34.6085161 L14.0006073,38.8466162 L18.8200704,36.0238741 L19.8343783,37.7412415 L14.0006073,41.1600287 L14.0006073,46.4427028 L19.036136,49.7937123 L25.1519926,46.2503337 L26.1582981,47.9746783 L20.0004287,51.5409817 L20.0004287,58.378556 L25.5771216,61.7215917 L31.3938874,58.3077882 L32.4091956,60.0261523 L27.5277138,62.8897604 L32.4392048,65.8341036 L38.0058946,62.3754472 L38.0058946,48.3733707 Z M58.5121198,43.029896 C58.5121198,42.2055995 57.8389154,41.5347996 57.0116643,41.5347996 C56.1844131,41.5347996 55.5112088,42.2055995 55.5112088,43.029896 C55.5112088,43.8541925 56.1844131,44.5249924 57.0116643,44.5249924 C57.8389154,44.5249924 58.5121198,43.8541925 58.5121198,43.029896 L58.5121198,43.029896 Z M53.5106014,26.0495874 C53.5106014,25.2252909 52.8373971,24.5544909 52.0101459,24.5544909 C51.1828948,24.5544909 50.5096904,25.2252909 50.5096904,26.0495874 C50.5096904,26.8738839 51.1828948,27.5446838 52.0101459,27.5446838 C52.8373971,27.5446838 53.5106014,26.8738839 53.5106014,26.0495874 L53.5106014,26.0495874 Z M46.5084758,38.0462412 C46.5084758,38.8705377 47.1816802,39.5413377 48.0089313,39.5413377 C48.8361824,39.5413377 49.5093868,38.8705377 49.5093868,38.0462412 C49.5093868,37.2219447 48.8361824,36.5511448 48.0089313,36.5511448 C47.1816802,36.5511448 46.5084758,37.2219447 46.5084758,38.0462412 L46.5084758,38.0462412 Z M44.0077166,53.9580542 L40.006502,53.9580542 L40.006502,62.9286329 C40.006502,63.2725051 39.8284479,63.5924557 39.5353589,63.7748575 L32.9783684,67.8494936 C32.8163192,67.9491667 32.6322634,68 32.4482075,68 C32.2701534,68 32.0920994,67.9521569 31.9330511,67.8574675 L18.4839683,59.7959075 C18.1838772,59.6154992 17.9998214,59.2915616 17.9998214,58.941709 L17.9998214,51.5011124 L12.4441348,47.805234 C12.1670507,47.6198421 12,47.308862 12,46.9759539 L12,34.0802487 C12,33.749334 12.1650501,33.4393507 12.4391333,33.2549555 L17.9998214,29.5072471 L17.9998214,22.0626635 C17.9998214,21.7118143 18.1848776,21.38688 18.4869693,21.2074684 L31.9370523,13.1967417 C32.2591501,13.0073628 32.6622725,13.010353 32.9793687,13.2077057 L39.0162013,16.9643847 L45.4261472,13.1419215 C45.7442438,12.9505491 46.1423646,12.9535393 46.4604612,13.1459084 L59.5334298,21.0868639 C59.83052,21.2672722 60.0125752,21.5902131 60.0125752,21.9380722 L60.0125752,29.4564138 L66.5105478,33.1582726 C66.8226426,33.3356907 67.0147009,33.6656086 67.0147009,34.0234351 L67.0147009,48.2637303 C67.0147009,48.6155763 66.8276441,48.9425041 66.5235518,49.1209189 C66.2164586,49.3013272 65.8403444,49.3053141 65.5322509,49.1368666 L59.267349,45.6961513 C58.6581641,46.2094678 57.8699248,46.5184544 57.0116643,46.5184544 C55.0810782,46.5184544 53.5106014,44.9535868 53.5106014,43.029896 C53.5106014,41.1062053 55.0810782,39.5413377 57.0116643,39.5413377 C58.9422503,39.5413377 60.5127271,41.1062053 60.5127271,43.029896 C60.5127271,43.3747649 60.4617116,43.7086698 60.367683,44.0246335 L65.0140936,46.5762648 L65.0140936,34.601539 L58.516121,30.8996802 C58.2040262,30.7222621 58.0119679,30.3923442 58.0119679,30.0345178 L58.0119679,27.0463183 L55.3651644,27.0463183 C54.9340335,28.4855978 53.5936266,29.5381457 52.0101459,29.5381457 C50.0795599,29.5381457 48.5090831,27.9732781 48.5090831,26.0495874 C48.5090831,24.1258966 50.0795599,22.561029 52.0101459,22.561029 C53.5936266,22.561029 54.9340335,23.6135769 55.3651644,25.0528564 L58.0119679,25.0528564 L58.0119679,22.4972382 L45.9353018,15.1612984 L40.0055017,18.6976998 L40.006502,31.2614936 L45.9553079,35.2225024 C46.5324831,34.8048721 47.2416984,34.5576829 48.0089313,34.5576829 C49.9395174,34.5576829 51.5099941,36.1225505 51.5099941,38.0462412 C51.5099941,39.969932 49.9395174,41.5347996 48.0089313,41.5347996 C46.0783452,41.5347996 44.5078685,39.969932 44.5078685,38.0462412 C44.5078685,37.6106698 44.5888931,37.1930395 44.7359377,36.8073046 L38.4500295,32.6230281 C38.1729454,32.4376361 38.0058946,32.126656 38.0058946,31.7937479 L38.0048943,18.6857391 L32.4382045,15.2211022 L27.0025543,18.4574877 L27.0025543,26.0495874 L25.001947,26.0495874 L25.001947,19.6495779 L20.0004287,22.62781 L20.0004287,29.4574105 L26.0022507,32.875201 L32.0040727,29.4574105 L32.0040727,24.0561255 L34.00468,24.0561255 L34.00468,30.0365112 C34.00468,30.3943376 33.8126217,30.7242556 33.5005269,30.9016737 L27.0025543,34.6025357 L27.0025543,40.4164674 L33.2014362,43.8801075 C33.5175321,44.0565289 33.7125913,44.3884403 33.7125913,44.7492569 L33.7125913,48.579694 L38.0058946,46.0599581 L38.0058946,41.525829 L32.3901899,37.6983821 L33.5195327,36.053776 L39.5703696,40.1782487 C39.8434525,40.3636407 40.006502,40.6716306 40.006502,41.0005518 L40.006502,51.9645923 L44.0077166,51.9645923 L44.0077166,53.9580542 Z M65.13413,54.3946224 L64.3909044,53.7307996 L56.0873837,61.768438 C56.0473715,61.7664446 56.00936,61.7564773 55.9693478,61.7564773 C54.8179983,61.7564773 53.8807138,62.6904142 53.8807138,63.8376515 C53.8807138,64.9858856 54.8179983,65.9188258 55.9693478,65.9188258 C57.1206974,65.9188258 58.0579819,64.9858856 58.0579819,63.8376515 C58.0579819,63.721034 58.041977,63.6094001 58.0239716,63.4977663 L65.13413,54.3946224 Z M59.8155154,55.5269088 L60.6067556,53.695914 C59.132308,53.0639866 57.5728346,52.7440359 55.9693478,52.7440359 C49.3353339,52.7440359 43.9386957,58.2071183 43.9386957,64.9220948 L45.939303,64.9220948 C45.939303,59.3065126 50.4386689,54.7374979 55.9693478,54.7374979 C57.2987514,54.7374979 58.5931443,55.0026283 59.8155154,55.5269088 L59.8155154,55.5269088 Z M68,64.9220948 L65.9993927,64.9220948 C65.9993927,62.816999 65.3541968,60.7856613 64.1318257,59.0473625 L65.7713234,57.9041121 C67.2297662,59.979306 68,62.4063459 68,64.9220948 L68,64.9220948 Z" id="Amazon-Elastic-Inference_Icon_64_Squid" fill="#FFFFFF"></path>
    </g>
</svg>

<svg xmlns="http://www.w3.org/2000/svg" width="80" height="80"><defs><linearGradient id="a" x1="0%" x2="100%" y1="100%" y2="0%"><stop offset="0%" stop-color="#055F4E"/><stop offset="100%" stop-color="#56C0A7"/></linearGradient></defs><g fill="none" fill-rule="evenodd"><path fill="url(#a)" d="M0 0h80v80H0z"/><path fill="#FFF" d="M38.006 48.373 25.91 55.471l-1.015-1.718 6.817-4v-4.42l-5.739-3.206-6.104 3.01-.887-1.787 6.02-2.968v-5.78l-5.957-3.392-5.044 3.399v4.238l4.82-2.823 1.013 1.717-5.833 3.419v5.283l5.035 3.35 6.116-3.543 1.006 1.725L20 51.54v6.838l5.577 3.343 5.817-3.414 1.015 1.718-4.881 2.864 4.911 2.944 5.567-3.459V48.373Zm20.506-5.343a1.5 1.5 0 0 0-1.5-1.495 1.5 1.5 0 0 0-1.5 1.495 1.5 1.5 0 0 0 1.5 1.495 1.5 1.5 0 0 0 1.5-1.495Zm-5.001-16.98a1.5 1.5 0 0 0-1.5-1.496 1.5 1.5 0 0 0-1.501 1.496 1.5 1.5 0 0 0 1.5 1.495 1.5 1.5 0 0 0 1.5-1.495Zm-7.003 11.996a1.5 1.5 0 0 0 1.5 1.495 1.5 1.5 0 0 0 1.501-1.495 1.5 1.5 0 0 0-1.5-1.495 1.5 1.5 0 0 0-1.5 1.495Zm-2.5 15.912h-4.001v8.97a.997.997 0 0 1-.472.847l-6.557 4.074a1.013 1.013 0 0 1-1.045.008l-13.449-8.061a.997.997 0 0 1-.484-.854v-7.44l-5.556-3.697a.999.999 0 0 1-.444-.829V34.08c0-.33.165-.64.44-.825L18 29.507v-7.444c0-.351.185-.676.487-.856l13.45-8.01c.322-.19.725-.187 1.042.01l6.037 3.757 6.41-3.822a1.001 1.001 0 0 1 1.034.004l13.073 7.94c.298.181.48.504.48.852v7.518l6.498 3.702a.995.995 0 0 1 .504.865v14.24a.995.995 0 0 1-.491.858c-.308.18-.684.184-.992.016l-6.265-3.44a3.49 3.49 0 0 1-2.255.821 3.499 3.499 0 0 1-3.501-3.488 3.499 3.499 0 0 1 3.5-3.489 3.499 3.499 0 0 1 3.502 3.489c0 .345-.051.679-.145.995l4.646 2.551V34.602L58.516 30.9a.995.995 0 0 1-.504-.865v-2.989h-2.647a3.505 3.505 0 0 1-3.355 2.492 3.499 3.499 0 0 1-3.5-3.488 3.499 3.499 0 0 1 3.5-3.489 3.505 3.505 0 0 1 3.355 2.492h2.647v-2.556l-12.077-7.336-5.93 3.537.002 12.563 5.948 3.962a3.499 3.499 0 0 1 5.555 2.824 3.499 3.499 0 0 1-3.501 3.488 3.499 3.499 0 0 1-3.501-3.489c0-.435.08-.853.228-1.239l-6.286-4.184a.999.999 0 0 1-.444-.83l-.001-13.107-5.567-3.465-5.435 3.236v7.593h-2.001v-6.4L20 22.628v6.83l6.002 3.417 6.002-3.418v-5.4h2v5.98a.995.995 0 0 1-.503.865l-6.498 3.7v5.814L33.2 43.88a.995.995 0 0 1 .512.87v3.83l4.293-2.52v-4.534l-5.616-3.828 1.13-1.644 6.05 4.124a.994.994 0 0 1 .437.823v10.964h4v1.993Zm21.126.437-.743-.664-8.304 8.037c-.04-.002-.078-.012-.118-.012a2.088 2.088 0 0 0-2.088 2.082c0 1.148.937 2.08 2.088 2.08a2.087 2.087 0 0 0 2.089-2.08c0-.117-.016-.229-.034-.34l7.11-9.103Zm-5.318 1.132.79-1.831a11.704 11.704 0 0 0-4.637-.952c-6.634 0-12.03 5.463-12.03 12.178h2c0-5.615 4.5-10.185 10.03-10.185 1.33 0 2.624.266 3.847.79ZM68 64.922h-2c0-2.105-.646-4.136-1.868-5.875l1.64-1.143A12.15 12.15 0 0 1 68 64.922Z"/></g></svg>
